icons/store-line.svg

<svg viewBox="0 0 24 24" fill="currentColor" xmlns="http://www.w3.org/2000/svg"><path d="M21 11.6458V21C21 21.5523 20.5523 22 20 22H4C3.44772 22 3 21.5523 3 21V11.6458C2.37764 10.9407 2 10.0144 2 9V3C2 2.44772 2.44772 2 3 2H21C21.5523 2 22 2.44772 22 3V9C22 10.0144 21.6224 10.9407 21 11.6458ZM19 12.874C18.6804 12.9562 18.3453 13 18 13C16.8053 13 15.7329 12.4762 15 11.6458C14.2671 12.4762 13.1947 13 12 13C10.8053 13 9.73294 12.4762 9 11.6458C8.26706 12.4762 7.19469 13 6 13C5.6547 13 5.31962 12.9562 5 12.874V20H19V12.874ZM14 9C14 8.44772 14.4477 8 15 8C15.5523 8 16 8.44772 16 9C16 10.1046 16.8954 11 18 11C19.1046 11 20 10.1046 20 9V4H4V9C4 10.1046 4.89543 11 6 11C7.10457 11 8 10.1046 8 9C8 8.44772 8.44772 8 9 8C9.55228 8 10 8.44772 10 9C10 10.1046 10.8954 11 12 11C13.1046 11 14 10.1046 14 9Z"/></svg>

<svg xmlns="http://www.w3.org/2000/svg" viewBox="0 0 24 24">
    <g>
        <path fill="none" d="M0 0h24v24H0z"/>
        <path d="M21 11.646V21a1 1 0 0 1-1 1H4a1 1 0 0 1-1-1v-9.354A3.985 3.985 0 0 1 2 9V3a1 1 0 0 1 1-1h18a1 1 0 0 1 1 1v6c0 1.014-.378 1.94-1 2.646zm-2 1.228a4.007 4.007 0 0 1-4-1.228A3.99 3.99 0 0 1 12 13a3.99 3.99 0 0 1-3-1.354 3.99 3.99 0 0 1-4 1.228V20h14v-7.126zM14 9a1 1 0 0 1 2 0 2 2 0 1 0 4 0V4H4v5a2 2 0 1 0 4 0 1 1 0 1 1 2 0 2 2 0 1 0 4 0z"/>
    </g>
</svg>
